X:25
T: (2\`eme Partie de Saratoga)
M:C|
K:D
FG |: A3 B A2 F2 | A2 d2 f3 f | e2 g2 c2 d2 | \
edcB AGFG | A3 B A2 F2 | A2 d2 f3 f | e2 g2 c2 d2 | \
efed e2 z2 :|
 fg \
M:3/2
|: a3 g fgaf defd | \
M:C
e2 g2 B2 c2 | edcB A2 fg | \
M:3/2
a3 g fgaf defd |  \
M:C|
e2 g2 B2 c2 | dedc d2 z2 :|
